contributed-vectors/yr.svg

<svg xmlns="http://www.w3.org/2000/svg" xml:space="preserve" style="fill-rule:evenodd;clip-rule:evenodd;stroke-linejoin:round;stroke-miterlimit:2" viewBox="0 0 192 192"><circle cx="88" cy="88" r="88" style="fill:#99bdfe" transform="translate(8 8)"/><path d="M100.488 136.116V89.627a27.784 27.784 0 0 1 27.785-27.785h3.477c15.31 0 27.72 12.41 27.72 27.719v5.622a17.648 17.648 0 0 1-17.649 17.648h-.002l7.764 9.888h6.283v13.397h-11.688l-18.363-23.285h-.878c-6.118 0-11.079 4.961-11.079 11.08v12.205h-13.37Zm45.329-48.465a11.825 11.825 0 0 0-11.824-11.825h-8.31a11.825 11.825 0 0 0-11.825 11.825v11.328h27.743a4.216 4.216 0 0 0 4.216-4.216v-7.112ZM73.341 105.376a27.25 27.25 0 0 1-14.096 3.906c-15.117 0-27.39-12.274-27.39-27.391V61.842H45.15v19.2c-.017.281-.026.564-.026.849 0 7.794 6.328 14.121 14.121 14.121 7.508 0 13.656-5.872 14.096-13.271V61.842h13.294v47.319c0 11.985-7.714 22.182-18.441 25.893l-8.494-11.78c7.583-.239 13.666-6.471 13.666-14.113 0-.285-.008-.568-.025-.85v-2.935Z" style="fill:#fff" transform="translate(24.916 25.78) scale(.73954)"/></svg>

<?xml version="1.0" encoding="UTF-8" standalone="no"?>
<!DOCTYPE svg PUBLIC "-//W3C//DTD SVG 1.1//EN" "http://www.w3.org/Graphics/SVG/1.1/DTD/svg11.dtd">
<svg width="100%" height="100%" viewBox="0 0 192 192" version="1.1" xmlns="http://www.w3.org/2000/svg" xmlns:xlink="http://www.w3.org/1999/xlink" xml:space="preserve" xmlns:serif="http://www.serif.com/" style="fill-rule:evenodd;clip-rule:evenodd;stroke-linejoin:round;stroke-miterlimit:2;">
    <g id="Layer1">
        <g transform="matrix(1,0,0,1,8,8)">
            <circle cx="88" cy="88" r="88" style="fill:rgb(153,189,254);"/>
        </g>
        <g transform="matrix(0.739542,0,0,0.739542,24.9161,25.7798)">
            <path d="M100.488,136.116L100.488,89.627C100.488,82.258 103.415,75.191 108.626,69.98C113.837,64.769 120.904,61.842 128.273,61.842C129.431,61.842 130.593,61.842 131.75,61.842C147.06,61.842 159.47,74.252 159.47,89.561L159.47,95.183C159.47,99.863 157.611,104.352 154.301,107.662C150.991,110.972 146.502,112.831 141.821,112.831C141.82,112.831 141.819,112.831 141.819,112.831L149.583,122.719L155.866,122.719L155.866,136.116L144.178,136.116L125.815,112.831L124.937,112.831C118.819,112.831 113.858,117.792 113.858,123.911C113.858,129.913 113.858,136.116 113.858,136.116L100.488,136.116ZM145.817,87.651C145.817,84.515 144.572,81.507 142.354,79.289C140.137,77.072 137.129,75.826 133.993,75.826C131.28,75.826 128.396,75.826 125.683,75.826C122.547,75.826 119.539,77.072 117.322,79.289C115.104,81.507 113.858,84.515 113.858,87.651C113.858,93.355 113.858,98.979 113.858,98.979L141.601,98.979C143.93,98.979 145.817,97.091 145.817,94.763C145.817,92.739 145.817,90.203 145.817,87.651Z" style="fill:white;"/>
            <path d="M73.341,105.376C69.222,107.855 64.399,109.282 59.245,109.282C44.128,109.282 31.855,97.008 31.855,81.891L31.855,61.842L45.15,61.842L45.15,81.042C45.133,81.323 45.124,81.606 45.124,81.891C45.124,89.685 51.452,96.012 59.245,96.012C66.753,96.012 72.901,90.14 73.341,82.741L73.341,61.842L86.635,61.842L86.635,109.161C86.635,121.146 78.921,131.343 68.194,135.054L59.7,123.274C67.283,123.035 73.366,116.803 73.366,109.161C73.366,108.876 73.358,108.593 73.341,108.311L73.341,105.376Z" style="fill:white;"/>
        </g>
    </g>
</svg>
